src/assets/images/Facebook.svg

<svg width="60" height="60" viewBox="0 0 60 60" fill="none" xmlns="http://www.w3.org/2000/svg">
<rect width="60" height="60" rx="30" fill="#1877F2"/>
<path d="M41.6777 38.6719L43.0078 30H34.6875V24.375C34.6875 22.002 35.8477 19.6875 39.5742 19.6875H43.3594V12.3047C43.3594 12.3047 39.9258 11.7188 36.6445 11.7188C29.7891 11.7188 25.3125 15.873 25.3125 23.3906V30H17.6953V38.6719H25.3125V59.6367C26.8418 59.877 28.4062 60 30 60C31.5938 60 33.1582 59.877 34.6875 59.6367V38.6719H41.6777Z" fill="white"/>
</svg>

<svg xmlns="http://www.w3.org/2000/svg" width="60" height="60" fill="none"><rect width="60" height="60" fill="#1877F2" rx="30"/><path fill="#fff" d="M41.678 38.672 43.008 30h-8.32v-5.625c0-2.373 1.16-4.687 4.886-4.687h3.785v-7.383s-3.433-.586-6.715-.586c-6.855 0-11.331 4.154-11.331 11.672V30h-7.618v8.672h7.618v20.965q2.295.362 4.687.363 2.392-.002 4.688-.363V38.672z"/></svg>
